Sources/FrostedUI/Resources/Icons.xcassets/plane24.imageset/plane-24.svg

<svg width="24" height="24" viewBox="0 0 24 24" fill="none" xmlns="http://www.w3.org/2000/svg" data-fui-icon="true">
  <path
    d="M11.9598 2.75391C12.2437 2.75406 12.5027 2.91511 12.6298 3.16895L15.6591 9.22656H19.7274C21.2585 9.22676 22.4997 10.4689 22.4999 12C22.4997 13.5311 21.2585 14.7723 19.7274 14.7725H15.66L12.6298 20.8311L11.9598 20.4951V20.4961L12.6298 20.8311C12.5027 21.0849 12.2437 21.2459 11.9598 21.2461H9.5321C9.30123 21.2461 9.0834 21.139 8.94128 20.957C8.79927 20.775 8.74857 20.5375 8.80457 20.3135L9.5321 20.4961V20.4951L8.80457 20.3135L10.1893 14.7725H7.01062L4.80261 16.9805C4.66199 17.1209 4.47111 17.2002 4.27234 17.2002H2.24988C2.00525 17.2002 1.77597 17.0803 1.63562 16.8799C1.4955 16.6796 1.46125 16.4231 1.5448 16.1934L3.06921 11.999L1.5448 7.80566L1.51941 7.71875C1.47179 7.51293 1.51281 7.29448 1.63562 7.11914C1.77598 6.91891 2.00534 6.79983 2.24988 6.7998H4.27234L4.4198 6.81445C4.5638 6.84327 4.6972 6.9142 4.80261 7.01953L7.01062 9.22656H10.1893L8.80457 3.68555C8.74874 3.46163 8.79925 3.2239 8.94128 3.04199C9.08341 2.8603 9.30141 2.75393 9.5321 2.75391H11.9598ZM11.8778 9.79492C11.9338 10.0189 11.8832 10.2565 11.7411 10.4385C11.599 10.6204 11.3812 10.7266 11.1503 10.7266H6.70007C6.50119 10.7265 6.31043 10.6475 6.1698 10.5068L3.96179 8.2998H3.32117L4.57312 11.7432C4.63328 11.9086 4.63318 12.0904 4.57312 12.2559L3.32117 15.7002H3.96179L6.1698 13.4922L6.28406 13.3984C6.40631 13.317 6.55099 13.2725 6.70007 13.2725H11.1503C11.3809 13.2725 11.5989 13.3789 11.7411 13.5605C11.8831 13.7424 11.9336 13.9802 11.8778 14.2041L10.4921 19.7461H11.496L14.5253 13.6875C14.6523 13.4335 14.9122 13.2725 15.1962 13.2725H19.7274C20.4301 13.2723 20.9997 12.7027 20.9999 12C20.9997 11.2973 20.4301 10.7268 19.7274 10.7266H15.1962C14.9477 10.7265 14.7177 10.6041 14.579 10.4033L14.5253 10.3125L11.496 4.25391H10.493L11.8778 9.79492Z"
    fill="currentColor"
  />
</svg>

<svg xmlns="http://www.w3.org/2000/svg" width="24" height="24" fill="none" data-fui-icon="true" viewBox="0 0 24 24"><path fill="currentColor" d="M11.96 2.754a.75.75 0 0 1 .67.415l3.03 6.058h4.067a2.774 2.774 0 0 1 0 5.546H15.66l-3.03 6.058-.67-.336v.001l.67.335a.75.75 0 0 1-.67.415H9.532a.75.75 0 0 1-.727-.932l.727.182-.727-.182 1.384-5.541H7.011L4.803 16.98a.75.75 0 0 1-.53.22H2.25a.75.75 0 0 1-.705-1.007L3.069 12 1.545 7.806l-.026-.087a.75.75 0 0 1 .73-.92h2.023l.148.015a.75.75 0 0 1 .383.206L7.01 9.227h3.178L8.805 3.686a.75.75 0 0 1 .727-.932zm-.082 7.04a.75.75 0 0 1-.728.933H6.7a.75.75 0 0 1-.53-.22L3.962 8.3h-.64l1.251 3.443c.06.166.06.347 0 .513L3.321 15.7h.64l2.209-2.208.114-.094a.75.75 0 0 1 .416-.125h4.45a.75.75 0 0 1 .728.931l-1.386 5.542h1.004l3.03-6.058a.75.75 0 0 1 .67-.415h4.531a1.273 1.273 0 0 0 0-2.546h-4.53a.75.75 0 0 1-.618-.324l-.054-.09-3.029-6.06h-1.003z"/></svg>
